svg/FoundationIcons/fi-thumbnails.svg

<svg xmlns="http://www.w3.org/2000/svg" viewBox="0 0 100 100" enable-background="new 0 0 100 100"><path d="m30.28 17.553h-10.455-.0001c-1.253 0-2.269 1.017-2.269 2.269v10.454c0 1.253 1.016 2.269 2.269 2.269h.0001 10.454c1.253 0 2.269-1.016 2.269-2.269v-10.453c0 0 0 0 0 0 .0001-1.253-1.015-2.27-2.268-2.27"/><path d="m55.23 17.553h-10.454c-1.254 0-2.27 1.017-2.27 2.269v10.454c0 1.253 1.016 2.269 2.269 2.269h10.455c1.253 0 2.269-1.016 2.269-2.269v-10.453c0 0 0 0 0 0 .0001-1.253-1.015-2.27-2.269-2.27"/><path d="m82.45 19.822c0-1.252-1.016-2.269-2.269-2.269h-10.455-.0001c-1.253 0-2.269 1.017-2.269 2.269v.0001 10.453c0 0 0 0 0 .0001 0 1.253 1.016 2.27 2.269 2.27h.0001 10.454c1.253 0 2.269-1.016 2.269-2.269v-10.456h.0001c0 0 0 0 0 0"/><path d="m30.28 42.506h-10.455-.0001c-1.253 0-2.269 1.017-2.269 2.269v10.455c0 1.253 1.016 2.269 2.269 2.269h.0001 10.454c1.253 0 2.269-1.016 2.269-2.269v-10.454c0 0 0 0 0 0 .0001-1.253-1.015-2.27-2.268-2.27"/><path d="m55.23 42.506h-10.454c-1.254 0-2.27 1.017-2.27 2.269v10.455c0 1.253 1.016 2.269 2.269 2.269h10.455c1.253 0 2.269-1.016 2.269-2.269v-10.454c0 0 0 0 0 0 .0001-1.253-1.015-2.27-2.269-2.27"/><path d="m80.18 42.506h-10.455-.0001c-1.253 0-2.269 1.017-2.269 2.269v10.454c0 0 0 0 0 .0001 0 1.253 1.016 2.27 2.269 2.27h.0001 10.454c1.253 0 2.269-1.016 2.269-2.269v-10.455c0 0 0 0 0 0 .0001-1.253-1.015-2.27-2.268-2.27"/><path d="m30.28 67.45h-10.455-.0001c-1.253 0-2.269 1.017-2.269 2.269v10.454c0 1.253 1.016 2.269 2.269 2.269h.0001 10.454c1.253 0 2.269-1.016 2.269-2.269v-10.454c.0001-1.252-1.015-2.269-2.268-2.269"/><path d="m55.23 67.45h-10.454c-1.254 0-2.27 1.017-2.27 2.269v10.454c0 1.253 1.016 2.269 2.269 2.269h10.455c1.253 0 2.269-1.016 2.269-2.269v-10.454c.0001-1.252-1.015-2.269-2.269-2.269"/><path d="m80.18 67.45h-10.455-.0001c-1.253 0-2.269 1.017-2.269 2.269v10.453.0001c0 1.253 1.016 2.27 2.269 2.27h.0001 10.454c1.253 0 2.269-1.016 2.269-2.269v-10.455c.0001-1.252-1.015-2.269-2.268-2.269"/></svg>

<?xml version="1.0" encoding="utf-8"?>
<!-- Generator: Adobe Illustrator 17.0.0, SVG Export Plug-In . SVG Version: 6.00 Build 0)  -->
<!DOCTYPE svg PUBLIC "-//W3C//DTD SVG 1.1//EN" "http://www.w3.org/Graphics/SVG/1.1/DTD/svg11.dtd">
<svg version="1.1" id="Layer_1" xmlns="http://www.w3.org/2000/svg" xmlns:xlink="http://www.w3.org/1999/xlink" x="0px" y="0px"
	 width="100px" height="100px" viewBox="0 0 100 100" enable-background="new 0 0 100 100" xml:space="preserve">
<g>
	<path d="M30.278,17.553L30.278,17.553H19.823v0l-0.001,0c-1.253,0-2.269,1.017-2.269,2.269c0,0,0,0,0,0h0v10.454h0
		c0,1.253,1.016,2.269,2.269,2.269l0.001,0v0h10.454l0,0c1.253,0,2.269-1.016,2.269-2.269h0V19.823h0c0,0,0,0,0,0
		C32.547,18.57,31.531,17.553,30.278,17.553z"/>
	<path d="M55.227,17.553L55.227,17.553H44.773v0l-0.001,0c-1.253,0-2.269,1.017-2.269,2.269c0,0,0,0,0,0h0v10.454h0
		c0,1.253,1.016,2.269,2.269,2.269l0.001,0v0h10.454l0,0c1.253,0,2.269-1.016,2.269-2.269h0V19.823h0c0,0,0,0,0,0
		C57.497,18.57,56.481,17.553,55.227,17.553z"/>
	<path d="M82.446,19.822c0-1.252-1.016-2.269-2.269-2.269l0,0H69.722v0l-0.001,0c-1.253,0-2.269,1.017-2.269,2.269l0,0.001v10.453
		c0,0,0,0,0,0.001c0,1.253,1.016,2.27,2.269,2.27l0.001,0v0h10.454l0,0c1.253,0,2.269-1.016,2.269-2.269h0V19.822L82.446,19.822
		C82.446,19.822,82.446,19.822,82.446,19.822z"/>
	<path d="M30.278,42.506L30.278,42.506H19.823v0l-0.001,0c-1.253,0-2.269,1.017-2.269,2.269c0,0,0,0,0,0h0V55.23h0
		c0,1.253,1.016,2.269,2.269,2.269l0.001,0v0h10.454l0,0c1.253,0,2.269-1.016,2.269-2.269h0V44.776h0c0,0,0,0,0,0
		C32.547,43.523,31.531,42.506,30.278,42.506z"/>
	<path d="M55.227,42.506L55.227,42.506H44.773v0l-0.001,0c-1.253,0-2.269,1.017-2.269,2.269c0,0,0,0,0,0h0V55.23h0
		c0,1.253,1.016,2.269,2.269,2.269l0.001,0v0h10.454l0,0c1.253,0,2.269-1.016,2.269-2.269h0V44.776h0c0,0,0,0,0,0
		C57.497,43.523,56.481,42.506,55.227,42.506z"/>
	<path d="M80.177,42.506L80.177,42.506H69.722v0l-0.001,0c-1.253,0-2.269,1.017-2.269,2.269l0,0.001v10.453c0,0,0,0,0,0.001
		c0,1.253,1.016,2.27,2.269,2.27l0.001,0v0h10.454l0,0c1.253,0,2.269-1.016,2.269-2.269h0V44.776h0c0,0,0,0,0,0
		C82.446,43.523,81.43,42.506,80.177,42.506z"/>
	<path d="M30.278,67.454L30.278,67.454H19.823l0,0h-0.001c-1.253,0-2.269,1.017-2.269,2.269l0,0h0v10.454h0
		c0,1.253,1.016,2.269,2.269,2.269h0.001l0,0h10.454l0,0c1.253,0,2.269-1.016,2.269-2.269h0V69.723h0l0,0
		C32.547,68.471,31.531,67.454,30.278,67.454z"/>
	<path d="M55.227,67.454L55.227,67.454H44.773l0,0h-0.001c-1.253,0-2.269,1.017-2.269,2.269l0,0h0v10.454h0
		c0,1.253,1.016,2.269,2.269,2.269h0.001l0,0h10.454l0,0c1.253,0,2.269-1.016,2.269-2.269h0V69.723h0l0,0
		C57.497,68.471,56.481,67.454,55.227,67.454z"/>
	<path d="M80.177,67.454L80.177,67.454H69.722l0,0h-0.001c-1.253,0-2.269,1.017-2.269,2.269l0,0v10.453l0,0.001
		c0,1.253,1.016,2.27,2.269,2.27h0.001l0,0h10.454l0,0c1.253,0,2.269-1.016,2.269-2.269h0V69.723h0l0,0
		C82.446,68.471,81.43,67.454,80.177,67.454z"/>
</g>
</svg>
